$ t120 l4 o0 r  r  r  r  r  r  r  r  r  r  r  r  r  r  r  r  ;
$ t120 l4 o0 r  r  r  r  r  r  r  r  r  r  r  r  r  r  r  r  ;
$ t120 l4 o0 r  r  r  r  r  r  r  r  r  r  r  r  r  r  r  r  ;
$ t120 l4 o1 r  r  r  r  r  r  r  r  r  r  r  r  r  r  r  r  ;
$ t120 l4 o1 r  r  r  r  r  r  r  r  r  r  r  r  r  r  r  r  ;
$ t120 l4 o1 r  r  r  r  r  r  r  r  r  r  r  r  r  r  r  r  ;
$ t120 l4 o1 r  r  r  r  r  r  r  r  r  r  r  r  r  r  r  r  ;
$ t120 l4 o1 r  r  r  r  r  r  r  r  r  r  r  r  r  r  r  r  ;
$ t120 l4 o1 r  r  r  r  r  r  r  r  r  r  r  r  r  r  r  r  ;
$ t120 l4 o1 r  r  r  r  r  r  r  r  r  r  r  r  r  r  r  r  ;
$ t120 l4 o1 r  r  r  r  r  r  r  r  r  r  r  r  r  r  r  r  ;
$ t120 l4 o1 r  r  r  r  r  r  r  r  r  r  r  r  r  r  r  r  ;
$ t120 l4 o1 r  r  r  r  r  r  r  r  r  r  r  r  r  r  r  r  ;
$ t120 l4 o1 r  r  r  r  r  r  r  r  r  r  r  r  r  r  r  r  ;
$ t120 l4 o1 r  r  r  r  r  r  r  r  r  r  r  r  r  r  r  r  ;
$ t120 l4 o2 r  r  r  r  r  r  r  r  r  r  r  r  r  r  r  r  ;
$ t120 l4 o2 r  r  r  r  r  r  r  r  r  r  r  r  r  r  r  r  ;
$ t120 l4 o2 r  r  r  r  r  r  r  r  r  r  r  r  r  r  r  r  ;
$ t120 l4 o2 r  r  r  r  r  r  r  r  r  r  r  r  r  r  r  r  ;
$ t120 l4 o2 r  r  r  r  r  r  r  r  r  r  r  r  r  r  r  r  ;
$ t120 l4 o2 r  r  r  r  r  r  r  r  r  r  r  r  r  r  r  r  ;
$ t120 l4 o2 r  r  r  r  r  r  r  r  r  r  r  r  r  r  r  r  ;
$ t120 l4 o2 r  r  r  r  r  r  r  r  r  r  r  r  r  r  r  r  ;
$ t120 l4 o2 r  r  r  r  r  r  r  r  r  r  r  r  r  r  r  r  ;
$ t120 l4 o2 r  r  r  r  r  r  r  r  r  r  r  r  r  r  r  r  ;
$ t120 l4 o2 r  r  r  r  r  r  r  r  r  r  r  r  r  r  r  r  ;
$ t120 l4 o2 r  r  r  r  r  r  r  r  r  r  r  r  r  r  r  r  ;
$ t120 l4 o3 r  r  r  r  r  r  r  r  r  r  r  r  r  r  r  r  ;
$ t120 l4 o3 r  r  r  r  r  r  r  r  r  r  r  r  r  r  r  r  ;
$ t120 l4 o3 r  r  r  r  r  r  r  r  r  r  r  r  r  r  r  r  ;
$ t120 l4 o3 r  r  r  r  r  r  r  r  r  r  r  r  r  r  r  r  ;
$ t120 l4 o3 r  r  r  r  r  r  r  r  r  r  r  r  r  r  r  r  ;
$ t120 l4 o3 r  r  r  r  r  r  r  r  r  r  r  r  r  r  r  r  ;
$ t120 l4 o3 r  r  r  r  r  r  r  r  r  r  r  r  r  r  r  r  ;
$ t120 l4 o3 r  r  r  r  r  r  r  r  r  r  r  r  r  r  r  r  ;
$ t120 l4 o3 r  r  r  r  r  r  r  r  r  r  r  r  r  r  r  r  ;
$ t120 l4 o3 a2    r  r  r  r  r  r  r  r  r  r  r  r  r  r  ;
$ t120 l4 o3 r  r  r  r  r  r  r  r  r  r  r  r  r  r  r  r  ;
$ t120 l4 o3 r  r  r  r  r  r  r  r  r  r  r  r  r  r  r  r  ;
$ t120 l4 o4 r  r  r  r  r  r  r  r  r  r  r  r  r  r  r  r  ;
$ t120 l4 o4 r  r  r  r  r  r  r  r  r  r  r  r  r  r  r  r  ;
$ t120 l4 o4 r  r  r  r  r  r  r  r  r  r  r  r  r  r  r  r  ;
$ t120 l4 o4 r  r  r  r  r  r  r  r  r  r  r  r  r  r  r  r  ;
$ t120 l4 o4 r  r  r  r  r  r  r  r  r  r  r  r  r  r  r  r  ;
$ t120 l4 o4 r  r  r  r  r  r  r  r  r  r  r  r  r  r  r  r  ;
$ t120 l4 o4 r  r  r  r  r  r  r  r  r  r  r  r  r  r  r  r  ;
$ t120 l4 o4 r  r  r  r  r  r  r  r  r  r  r  r  r  r  r  r  ;
$ t120 l4 o4 r  r  r  r  r  r  r  r  r  r  r  r  r  r  r  r  ;
$ t120 l4 o4 r  r  r  r  r  r  r  r  r  r  r  r  r  r  r  r  ;
$ t120 l4 o4 r  r  r  r  r  r  r  r  r  r  r  r  r  r  r  r  ;
$ t120 l4 o4 r  r  r  r  r  r  r  r  r  r  r  r  r  r  r  r  ;
$ t120 l4 o5 r  r  r  r  r  r  r  r  r  r  r  r  r  r  r  r  ;
$ t120 l4 o5 r  r  r  r  r  r  r  r  r  r  r  r  r  r  r  r  ;
$ t120 l4 o5 r  r  r  r  r  r  r  r  r  r  r  r  r  r  r  r  ;
$ t120 l4 o5 r  r  r  r  r  r  r  r  r  r  r  r  r  r  r  r  ;
$ t120 l4 o5 r  r  r  r  r  r  r  r  r  r  r  r  r  r  r  r  ;
$ t120 l4 o5 r  r  r  r  r  r  r  r  r  r  r  r  r  r  r  r  ;
$ t120 l4 o5 r  r  r  r  r  r  r  r  r  r  r  r  r  r  r  r  ;
$ t120 l4 o5 r  r  r  r  r  r  r  r  r  r  r  r  r  r  r  r  ;
$ t120 l4 o5 r  r  r  r  r  r  r  r  r  r  r  r  r  r  r  r  ;
$ t120 l4 o5 r  r  r  r  r  r  r  r  r  r  r  r  r  r  r  r  ;
$ t120 l4 o5 r  r  r  r  r  r  r  r  r  r  r  r  r  r  r  r  ;
$ t120 l4 o5 r  r  r  r  r  r  r  r  r  r  r  r  r  r  r  r  ;
$ t120 l4 o6 r  r  r  r  r  r  r  r  r  r  r  r  r  r  r  r  ;
$ t120 l4 o6 r  r  r  r  r  r  r  r  r  r  r  r  r  r  r  r  ;
$ t120 l4 o6 r  r  r  r  r  r  r  r  r  r  r  r  r  r  r  r  ;
$ t120 l4 o6 r  r  r  r  r  r  r  r  r  r  r  r  r  r  r  r  ;
$ t120 l4 o6 r  r  r  r  r  r  r  r  r  r  r  r  r  r  r  r  ;
$ t120 l4 o6 r  r  r  r  r  r  r  r  r  r  r  r  r  r  r  r  ;
$ t120 l4 o6 r  r  r  r  r  r  r  r  r  r  r  r  r  r  r  r  ;
$ t120 l4 o6 r  r  r  r  r  r  r  r  r  r  r  r  r  r  r  r  ;
$ t120 l4 o6 r  r  r  r  r  r  r  r  r  r  r  r  r  r  r  r  ;
$ t120 l4 o6 r  r  r  r  r  r  r  r  r  r  r  r  r  r  r  r  ;
$ t120 l4 o6 r  r  r  r  r  r  r  r  r  r  r  r  r  r  r  r  ;
$ t120 l4 o6 r  r  r  r  r  r  r  r  r  r  r  r  r  r  r  r  ;
$ t120 l4 o7 r  r  r  r  r  r  r  r  r  r  r  r  r  r  r  r  ;
$ t120 l4 o7 r  r  r  r  r  r  r  r  r  r  r  r  r  r  r  r  ;
$ t120 l4 o7 r  r  r  r  r  r  r  r  r  r  r  r  r  r  r  r  ;
$ t120 l4 o7 r  r  r  r  r  r  r  r  r  r  r  r  r  r  r  r  ;
$ t120 l4 o7 r  r  r  r  r  r  r  r  r  r  r  r  r  r  r  r  ;
$ t120 l4 o7 r  r  r  r  r  r  r  r  r  r  r  r  r  r  r  r  ;
$ t120 l4 o7 r  r  r  r  r  r  r  r  r  r  r  r  r  r  r  r  ;
$ t120 l4 o7 r  r  r  r  r  r  r  r  r  r  r  r  r  r  r  r  ;
$ t120 l4 o7 r  r  r  r  r  r  r  r  r  r  r  r  r  r  r  r  ;
$ t120 l4 o7 r  r  r  r  r  r  r  r  r  r  r  r  r  r  r  r  ;
$ t120 l4 o7 r  r  r  r  r  r  r  r  r  r  r  r  r  r  r  r  ;
$ t120 l4 o7 r  r  r  r  r  r  r  r  r  r  r  r  r  r  r  r  ;
$ t120 l4 o8 r  r  r  r  r  r  r  r  r  r  r  r  r  r  r  r  ;