$o0 r  r  r  r  r  r  r  r  r  r  r  r  r  r  r  r  ;
$o0 r  r  r  r  r  r  r  r  r  r  r  r  r  r  r  r  ;
$o0 r  r  r  r  r  r  r  r  r  r  r  r  r  r  r  r  ;
$o1 r  r  r  r  r  r  r  r  r  r  r  r  r  r  r  r  ;
$o1 r  r  r  r  r  r  r  r  r  r  r  r  r  r  r  r  ;
$o1 r  r  r  r  r  r  r  r  r  r  r  r  r  r  r  r  ;
$o1 r  r  r  r  r  r  r  r  r  r  r  r  r  r  r  r  ;
$o1 r  r  r  r  r  r  r  r  r  r  r  r  r  r  r  r  ;
$o1 r  r  r  r  r  r  r  r  r  r  r  r  r  r  r  r  ;
$o1 r  r  r  r  r  r  r  r  r  r  r  r  r  r  r  r  ;
$o1 r  r  r  r  r  r  r  r  r  r  r  r  r  r  r  r  ;
$o1 r  r  r  r  r  r  r  r  r  r  r  r  r  r  r  r  ;
$o1 r  r  r  r  r  r  r  r  r  r  r  r  r  r  r  r  ;
$o1 r  r  r  r  r  r  r  r  r  r  r  r  r  r  r  r  ;
$o1 r  r  r  r  r  r  r  r  r  r  r  r  r  r  r  r  ;
$o2 r  r  r  r  r  r  r  r  r  r  r  r  r  r  r  r  ;
$o2 r  r  r  r  r  r  r  r  r  r  r  r  r  r  r  r  ;
$o2 r  r  r  r  r  r  r  r  r  r  r  r  r  r  r  r  ;
$o2 r  r  r  r  r  r  r  r  r  r  r  r  r  r  r  r  ;
$o2 r  r  r  r  r  r  r  r  r  r  r  r  r  r  r  r  ;
$o2 r  r  r  r  r  r  r  r  r  r  r  r  r  r  r  r  ;
$o2 r  r  r  r  r  r  r  r  r  r  r  r  r  r  r  r  ;
$o2 r  r  r  r  r  r  r  r  r  r  r  r  r  r  r  r  ;
$o2 r  r  r  r  r  r  r  r  r  r  r  r  r  r  r  r  ;
$o2 r  r  r  r  r  r  r  r  r  r  r  r  r  r  r  r  ;
$o2 r  r  r  r  r  r  r  r  r  r  r  r  r  r  r  r  ;
$o2 r  r  r  r  r  r  r  r  r  r  r  r  r  r  r  r  ;
$o3 r  r  r  r  r  r  r  r  r  r  r  r  r  r  r  r  ;
$o3 r  r  r  r  r  r  r  r  r  r  r  r  r  r  r  r  ;
$o3 r  r  r  r  r  r  r  r  r  r  r  r  r  r  r  r  ;
$o3 r  r  r  r  r  r  r  r  r  r  r  r  r  r  r  r  ;
$o3 r  r  r  r  r  r  r  r  r  r  r  r  r  r  r  r  ;
$o3 r  r  r  r  r  r  r  r  r  r  r  r  r  r  r  r  ;
$o3 r  r  r  r  r  r  r  r  r  r  r  r  r  r  r  r  ;
$o3 r  r  r  r  r  r  r  r  r  r  r  r  r  r  r  r  ;
$o3 r  r  r  r  r  r  r  r  r  r  r  r  r  r  r  r  ;
$o3 a. r8 r  r  r  r  r  r  r  r  r  r  r  r  r  r  ;
$o3 r  r  r  r  r  r  r  r  r  r  r  r  r  r  r  r  ;
$o3 r  r  r  r  r  r  r  r  r  r  r  r  r  r  r  r  ;
$o4 r  r  r  r  r  r  r  r  r  r  r  r  r  r  r  r  ;
$o4 r  r  r  r  r  r  r  r  r  r  r  r  r  r  r  r  ;
$o4 r  r  r  r  r  r  r  r  r  r  r  r  r  r  r  r  ;
$o4 r  r  r  r  r  r  r  r  r  r  r  r  r  r  r  r  ;
$o4 r  r  r  r  r  r  r  r  r  r  r  r  r  r  r  r  ;
$o4 r  r  r  r  r  r  r  r  r  r  r  r  r  r  r  r  ;
$o4 r  r  r  r  r  r  r  r  r  r  r  r  r  r  r  r  ;
$o4 r  r  r  r  r  r  r  r  r  r  r  r  r  r  r  r  ;
$o4 r  r  r  r  r  r  r  r  r  r  r  r  r  r  r  r  ;
$o4 r  r  r  r  r  r  r  r  r  r  r  r  r  r  r  r  ;
$o4 r  r  r  r  r  r  r  r  r  r  r  r  r  r  r  r  ;
$o4 r  r  r  r  r  r  r  r  r  r  r  r  r  r  r  r  ;
$o5 r  r  r  r  r  r  r  r  r  r  r  r  r  r  r  r  ;
$o5 r  r  r  r  r  r  r  r  r  r  r  r  r  r  r  r  ;
$o5 r  r  r  r  r  r  r  r  r  r  r  r  r  r  r  r  ;
$o5 r  r  r  r  r  r  r  r  r  r  r  r  r  r  r  r  ;
$o5 r  r  r  r  r  r  r  r  r  r  r  r  r  r  r  r  ;
$o5 r  r  r  r  r  r  r  r  r  r  r  r  r  r  r  r  ;
$o5 r  r  r  r  r  r  r  r  r  r  r  r  r  r  r  r  ;
$o5 r  r  r  r  r  r  r  r  r  r  r  r  r  r  r  r  ;
$o5 r  r  r  r  r  r  r  r  r  r  r  r  r  r  r  r  ;
$o5 r  r  r  r  r  r  r  r  r  r  r  r  r  r  r  r  ;
$o5 r  r  r  r  r  r  r  r  r  r  r  r  r  r  r  r  ;
$o5 r  r  r  r  r  r  r  r  r  r  r  r  r  r  r  r  ;
$o6 r  r  r  r  r  r  r  r  r  r  r  r  r  r  r  r  ;
$o6 r  r  r  r  r  r  r  r  r  r  r  r  r  r  r  r  ;
$o6 r  r  r  r  r  r  r  r  r  r  r  r  r  r  r  r  ;
$o6 r  r  r  r  r  r  r  r  r  r  r  r  r  r  r  r  ;
$o6 r  r  r  r  r  r  r  r  r  r  r  r  r  r  r  r  ;
$o6 r  r  r  r  r  r  r  r  r  r  r  r  r  r  r  r  ;
$o6 r  r  r  r  r  r  r  r  r  r  r  r  r  r  r  r  ;
$o6 r  r  r  r  r  r  r  r  r  r  r  r  r  r  r  r  ;
$o6 r  r  r  r  r  r  r  r  r  r  r  r  r  r  r  r  ;
$o6 r  r  r  r  r  r  r  r  r  r  r  r  r  r  r  r  ;
$o6 r  r  r  r  r  r  r  r  r  r  r  r  r  r  r  r  ;
$o6 r  r  r  r  r  r  r  r  r  r  r  r  r  r  r  r  ;
$o7 r  r  r  r  r  r  r  r  r  r  r  r  r  r  r  r  ;
$o7 r  r  r  r  r  r  r  r  r  r  r  r  r  r  r  r  ;
$o7 r  r  r  r  r  r  r  r  r  r  r  r  r  r  r  r  ;
$o7 r  r  r  r  r  r  r  r  r  r  r  r  r  r  r  r  ;
$o7 r  r  r  r  r  r  r  r  r  r  r  r  r  r  r  r  ;
$o7 r  r  r  r  r  r  r  r  r  r  r  r  r  r  r  r  ;
$o7 r  r  r  r  r  r  r  r  r  r  r  r  r  r  r  r  ;
$o7 r  r  r  r  r  r  r  r  r  r  r  r  r  r  r  r  ;
$o7 r  r  r  r  r  r  r  r  r  r  r  r  r  r  r  r  ;
$o7 r  r  r  r  r  r  r  r  r  r  r  r  r  r  r  r  ;
$o7 r  r  r  r  r  r  r  r  r  r  r  r  r  r  r  r  ;
$o7 r  r  r  r  r  r  r  r  r  r  r  r  r  r  r  r  ;
$o8 r  r  r  r  r  r  r  r  r  r  r  r  r  r  r  r  ;